packages/bpk-svgs/src/icons/sm/menu.svg

<svg xmlns="http://www.w3.org/2000/svg" viewBox="0 0 24 24"><path d="M21 6H3c-.9 0-1.5-.6-1.5-1.5S2.1 3 3 3h18c.9 0 1.5.6 1.5 1.5S21.9 6 21 6zm1.5 6c0 .9-.5 1.5-1.25 1.5H2.75C2 13.5 1.5 12.9 1.5 12s.5-1.5 1.25-1.5h18.5c.75 0 1.25.6 1.25 1.5zm-1.667 6c1 0 1.667.6 1.667 1.5s-.667 1.5-1.667 1.5H3.167c-1 0-1.667-.6-1.667-1.5S2.167 18 3.167 18h17.666z"/></svg>

<svg viewBox="0 0 24 24" fill="none" xmlns="http://www.w3.org/2000/svg">
<path d="M21 6H3C2.1 6 1.5 5.4 1.5 4.5C1.5 3.6 2.1 3 3 3H21C21.9 3 22.5 3.6 22.5 4.5C22.5 5.4 21.9 6 21 6ZM22.5 12C22.5 12.9 22 13.5 21.25 13.5H2.75C2 13.5 1.5 12.9 1.5 12C1.5 11.1 2 10.5 2.75 10.5H21.25C22 10.5 22.5 11.1 22.5 12ZM20.8333 18C21.8333 18 22.5 18.6 22.5 19.5C22.5 20.4 21.8333 21 20.8333 21H3.16667C2.16667 21 1.5 20.4 1.5 19.5C1.5 18.6 2.16667 18 3.16667 18H20.8333Z" fill="#111236"/>
</svg>
